src/assets/groupData1.svg

<svg width="358" height="20" viewBox="0 0 358 20" fill="none" xmlns="http://www.w3.org/2000/svg">
<g clip-path="url(#clip0_1_885)">
<path d="M216 1.66675C212.775 1.66675 210.167 4.27508 210.167 7.50008C210.167 11.8751 216 18.3334 216 18.3334C216 18.3334 221.833 11.8751 221.833 7.50008C221.833 4.27508 219.225 1.66675 216 1.66675ZM211.833 7.50008C211.833 5.20008 213.7 3.33342 216 3.33342C218.3 3.33342 220.167 5.20008 220.167 7.50008C220.167 9.90008 217.767 13.4918 216 15.7334C214.267 13.5084 211.833 9.87508 211.833 7.50008Z" fill="black"/>
<path d="M216 9.58341C217.151 9.58341 218.083 8.65067 218.083 7.50008C218.083 6.34949 217.151 5.41675 216 5.41675C214.849 5.41675 213.917 6.34949 213.917 7.50008C213.917 8.65067 214.849 9.58341 216 9.58341Z" fill="black"/>
</g>
<path d="M239.6 15L236.03 4.53H233.9L230.33 15H232.055L232.97 12.165H236.885L237.83 15H239.6ZM236.465 10.71H233.375L234.89 6.09H234.965L236.465 10.71ZM241.102 15H242.737V9.765C242.737 8.865 243.577 8.43 244.432 8.43C245.437 8.43 245.902 9.045 245.902 10.245V15H247.537V10.05C247.537 8.13 246.592 7.02 245.002 7.02C243.802 7.02 243.142 7.65 242.812 8.49H242.737V3.9H241.102V15ZM251.438 15V9.765C251.438 8.865 252.233 8.43 253.043 8.43C254.003 8.43 254.468 9.03 254.468 10.245V15H256.103V9.765C256.103 8.865 256.868 8.43 257.693 8.43C258.683 8.43 259.133 9.045 259.133 10.245V15H260.768V10.05C260.768 8.13 259.853 7.02 258.308 7.02C257.048 7.02 256.238 7.74 255.953 8.61H255.908C255.533 7.53 254.648 7.02 253.598 7.02C252.413 7.02 251.828 7.68 251.513 8.49H251.438V7.2H249.803V15H251.438ZM266.09 15.18C267.545 15.18 268.685 14.55 269.27 13.605L268.31 12.66C267.86 13.38 267.215 13.83 266.255 13.83C264.935 13.83 264.2 12.975 264.2 11.775V11.52H269.555V10.905C269.555 8.745 268.385 7.02 266.09 7.02C263.87 7.02 262.505 8.61 262.505 11.1C262.505 13.59 263.87 15.18 266.09 15.18ZM266.09 8.295C267.17 8.295 267.83 9.09 267.83 10.29V10.44H264.2V10.335C264.2 9.135 264.965 8.295 266.09 8.295ZM276.27 15H277.905V3.9H276.27V8.49H276.195C275.865 7.56 275.04 7.02 274.005 7.02C272.04 7.02 270.9 8.535 270.9 11.1C270.9 13.665 272.04 15.18 274.005 15.18C275.04 15.18 275.865 14.625 276.195 13.71H276.27V15ZM274.5 13.77C273.375 13.77 272.625 12.975 272.625 11.775V10.425C272.625 9.225 273.375 8.43 274.5 8.43C275.49 8.43 276.27 8.97 276.27 9.765V12.435C276.27 13.23 275.49 13.77 274.5 13.77ZM286.872 15V13.665H286.047V9.75C286.047 8.01 284.922 7.02 282.912 7.02C281.397 7.02 280.482 7.665 279.972 8.535L280.947 9.42C281.337 8.805 281.892 8.355 282.807 8.355C283.902 8.355 284.412 8.91 284.412 9.855V10.515H283.002C280.827 10.515 279.672 11.31 279.672 12.855C279.672 14.265 280.587 15.18 282.192 15.18C283.332 15.18 284.172 14.67 284.472 13.695H284.547C284.652 14.46 285.102 15 285.957 15H286.872ZM282.657 13.935C281.847 13.935 281.337 13.575 281.337 12.885V12.615C281.337 11.94 281.892 11.565 283.032 11.565H284.412V12.69C284.412 13.455 283.662 13.935 282.657 13.935ZM288.475 15H290.11V13.71H290.185C290.515 14.625 291.34 15.18 292.375 15.18C294.34 15.18 295.48 13.665 295.48 11.1C295.48 8.535 294.34 7.02 292.375 7.02C291.34 7.02 290.515 7.56 290.185 8.49H290.11V3.9H288.475V15ZM291.88 13.77C290.89 13.77 290.11 13.23 290.11 12.435V9.765C290.11 8.97 290.89 8.43 291.88 8.43C293.005 8.43 293.755 9.225 293.755 10.425V11.775C293.755 12.975 293.005 13.77 291.88 13.77ZM303.982 15V13.665H303.157V9.75C303.157 8.01 302.032 7.02 300.022 7.02C298.507 7.02 297.592 7.665 297.082 8.535L298.057 9.42C298.447 8.805 299.002 8.355 299.917 8.355C301.012 8.355 301.522 8.91 301.522 9.855V10.515H300.112C297.937 10.515 296.782 11.31 296.782 12.855C296.782 14.265 297.697 15.18 299.302 15.18C300.442 15.18 301.282 14.67 301.582 13.695H301.657C301.762 14.46 302.212 15 303.067 15H303.982ZM299.767 13.935C298.957 13.935 298.447 13.575 298.447 12.885V12.615C298.447 11.94 299.002 11.565 300.142 11.565H301.522V12.69C301.522 13.455 300.772 13.935 299.767 13.935ZM310.489 15H312.124V3.9H310.489V8.49H310.414C310.084 7.56 309.259 7.02 308.224 7.02C306.259 7.02 305.119 8.535 305.119 11.1C305.119 13.665 306.259 15.18 308.224 15.18C309.259 15.18 310.084 14.625 310.414 13.71H310.489V15ZM308.719 13.77C307.594 13.77 306.844 12.975 306.844 11.775V10.425C306.844 9.225 307.594 8.43 308.719 8.43C309.709 8.43 310.489 8.97 310.489 9.765V12.435C310.489 13.23 309.709 13.77 308.719 13.77ZM315.466 12.915C314.731 12.915 314.371 13.335 314.371 13.935V14.175C314.371 14.655 314.626 15.03 315.151 15.135C314.941 15.87 314.521 16.425 313.876 17.07H315.091C315.991 16.335 316.561 15.15 316.561 14.175V13.935C316.561 13.335 316.201 12.915 315.466 12.915ZM326.587 15V13.62H325.147V5.91H326.587V4.53H322.027V5.91H323.452V13.62H322.027V15H326.587ZM330.232 15V9.78C330.232 8.865 331.072 8.43 331.927 8.43C332.932 8.43 333.397 9.045 333.397 10.26V15H335.032V10.05C335.032 8.13 334.087 7.02 332.497 7.02C331.297 7.02 330.637 7.65 330.307 8.49H330.232V7.2H328.597V15H330.232ZM342.203 15H343.838V3.9H342.203V8.49H342.128C341.798 7.56 340.973 7.02 339.938 7.02C337.973 7.02 336.833 8.535 336.833 11.1C336.833 13.665 337.973 15.18 339.938 15.18C340.973 15.18 341.798 14.625 342.128 13.71H342.203V15ZM340.433 13.77C339.308 13.77 338.558 12.975 338.558 11.775V10.425C338.558 9.225 339.308 8.43 340.433 8.43C341.423 8.43 342.203 8.97 342.203 9.765V12.435C342.203 13.23 341.423 13.77 340.433 13.77ZM347 5.805C347.675 5.805 347.96 5.445 347.96 4.95V4.695C347.96 4.2 347.675 3.84 347 3.84C346.325 3.84 346.025 4.2 346.025 4.695V4.95C346.025 5.445 346.325 5.805 347 5.805ZM346.175 15H347.81V7.2H346.175V15ZM356.775 15V13.665H355.95V9.75C355.95 8.01 354.825 7.02 352.815 7.02C351.3 7.02 350.385 7.665 349.875 8.535L350.85 9.42C351.24 8.805 351.795 8.355 352.71 8.355C353.805 8.355 354.315 8.91 354.315 9.855V10.515H352.905C350.73 10.515 349.575 11.31 349.575 12.855C349.575 14.265 350.49 15.18 352.095 15.18C353.235 15.18 354.075 14.67 354.375 13.695H354.45C354.555 14.46 355.005 15 355.86 15H356.775ZM352.56 13.935C351.75 13.935 351.24 13.575 351.24 12.885V12.615C351.24 11.94 351.795 11.565 352.935 11.565H354.315V12.69C354.315 13.455 353.565 13.935 352.56 13.935Z" fill="black"/>
<path d="M26.985 15V10.44H31.29V8.94H26.985V6.03H31.83V4.53H25.29V15H26.985ZM34.9935 15V10.02C34.9935 9.21 35.7135 8.775 37.0035 8.775H37.6485V7.2H37.2135C35.9685 7.2 35.2935 7.905 35.0685 8.7H34.9935V7.2H33.3585V15H34.9935ZM39.9257 5.805C40.6007 5.805 40.8857 5.445 40.8857 4.95V4.695C40.8857 4.2 40.6007 3.84 39.9257 3.84C39.2507 3.84 38.9507 4.2 38.9507 4.695V4.95C38.9507 5.445 39.2507 5.805 39.9257 5.805ZM39.1007 15H40.7357V7.2H39.1007V15ZM44.0754 12.915C43.3404 12.915 42.9804 13.335 42.9804 13.935V14.175C42.9804 14.655 43.2354 15.03 43.7604 15.135C43.5504 15.87 43.1304 16.425 42.4854 17.07H43.7004C44.6004 16.335 45.1704 15.15 45.1704 14.175V13.935C45.1704 13.335 44.8104 12.915 44.0754 12.915ZM58.2709 15V13.59H55.7209V4.53H53.1409L50.4709 7.425L51.5059 8.355L53.9359 5.76H54.0559V13.59H51.1159V15H58.2709ZM66.905 13.56H61.625L64.085 11.445C65.465 10.26 66.59 9.15 66.59 7.455C66.59 5.64 65.36 4.35 63.23 4.35C61.13 4.35 60.08 5.58 59.645 6.9L61.13 7.47C61.385 6.555 61.94 5.82 63.095 5.82C64.13 5.82 64.79 6.45 64.79 7.455V7.65C64.79 8.61 64.19 9.45 63.14 10.395L59.795 13.38V15H66.905V13.56ZM76.6691 15.18C79.3991 15.18 81.1841 13.29 81.1841 9.765C81.1841 6.24 79.3991 4.35 76.6691 4.35C73.9391 4.35 72.1541 6.24 72.1541 9.765C72.1541 13.29 73.9391 15.18 76.6691 15.18ZM76.6691 13.665C75.0491 13.665 73.9691 12.495 73.9691 10.59V8.94C73.9691 7.035 75.0491 5.865 76.6691 5.865C78.2891 5.865 79.3691 7.035 79.3691 8.94V10.59C79.3691 12.495 78.2891 13.665 76.6691 13.665ZM86.1928 15.18C87.6928 15.18 88.7578 14.475 89.2678 13.2L88.0228 12.54C87.6928 13.32 87.1378 13.83 86.1928 13.83C84.9928 13.83 84.3778 13.005 84.3778 11.805V10.41C84.3778 9.21 84.9928 8.385 86.1928 8.385C87.0778 8.385 87.6328 8.85 87.8578 9.57L89.2078 8.94C88.7428 7.785 87.7528 7.02 86.1928 7.02C83.9428 7.02 82.6528 8.61 82.6528 11.1C82.6528 13.59 83.9428 15.18 86.1928 15.18ZM94.4093 15V13.665H92.8943V8.535H94.5293V7.2H92.8943V5.07H91.4243V6.435C91.4243 6.975 91.2443 7.2 90.7043 7.2H90.0443V8.535H91.2593V13.305C91.2593 14.37 91.8593 15 92.9843 15H94.4093ZM97.3078 12.915C96.5728 12.915 96.2128 13.335 96.2128 13.935V14.175C96.2128 14.655 96.4678 15.03 96.9928 15.135C96.7828 15.87 96.3628 16.425 95.7178 17.07H96.9328C97.8328 16.335 98.4028 15.15 98.4028 14.175V13.935C98.4028 13.335 98.0428 12.915 97.3078 12.915ZM111.143 13.56H105.863L108.323 11.445C109.703 10.26 110.828 9.15 110.828 7.455C110.828 5.64 109.598 4.35 107.468 4.35C105.368 4.35 104.318 5.58 103.883 6.9L105.368 7.47C105.623 6.555 106.178 5.82 107.333 5.82C108.368 5.82 109.028 6.45 109.028 7.455V7.65C109.028 8.61 108.428 9.45 107.378 10.395L104.033 13.38V15H111.143V13.56ZM116.522 15.18C119.132 15.18 120.317 13.185 120.317 9.765C120.317 6.345 119.132 4.35 116.522 4.35C113.912 4.35 112.727 6.345 112.727 9.765C112.727 13.185 113.912 15.18 116.522 15.18ZM116.522 13.74C115.067 13.74 114.527 12.51 114.527 10.68V8.85C114.527 7.02 115.067 5.79 116.522 5.79C117.977 5.79 118.517 7.02 118.517 8.85V10.68C118.517 12.51 117.977 13.74 116.522 13.74ZM129.492 15V13.59H126.942V4.53H124.362L121.692 7.425L122.727 8.355L125.157 5.76H125.277V13.59H122.337V15H129.492ZM134.511 15.18C136.941 15.18 138.261 13.875 138.261 12.15C138.261 10.755 137.421 9.915 136.161 9.57V9.45C137.226 9.075 137.946 8.235 137.946 7.035C137.946 5.43 136.686 4.35 134.511 4.35C132.336 4.35 131.076 5.43 131.076 7.035C131.076 8.235 131.796 9.075 132.861 9.45V9.57C131.601 9.915 130.761 10.755 130.761 12.15C130.761 13.875 132.081 15.18 134.511 15.18ZM134.511 13.815C133.251 13.815 132.531 13.2 132.531 12.165V11.865C132.531 10.83 133.251 10.215 134.511 10.215C135.771 10.215 136.491 10.83 136.491 11.865V12.165C136.491 13.2 135.771 13.815 134.511 13.815ZM134.511 8.91C133.356 8.91 132.726 8.385 132.726 7.44V7.185C132.726 6.24 133.356 5.715 134.511 5.715C135.666 5.715 136.296 6.24 136.296 7.185V7.44C136.296 8.385 135.666 8.91 134.511 8.91Z" fill="black"/>
<g clip-path="url(#clip1_1_885)">
<path d="M15.8333 2.49992H15V0.833252H13.3333V2.49992H6.66667V0.833252H5V2.49992H4.16667C3.24167 2.49992 2.50833 3.24992 2.50833 4.16659L2.5 15.8333C2.5 16.7499 3.24167 17.4999 4.16667 17.4999H15.8333C16.75 17.4999 17.5 16.7499 17.5 15.8333V4.16659C17.5 3.24992 16.75 2.49992 15.8333 2.49992ZM15.8333 15.8333H4.16667V6.66658H15.8333V15.8333ZM5.83333 8.33325H10V12.4999H5.83333V8.33325Z" fill="black"/>
</g>
<defs>
<clipPath id="clip0_1_885">
<rect width="20" height="20" fill="white" transform="translate(206)"/>
</clipPath>
<clipPath id="clip1_1_885">
<rect width="20" height="20" fill="white"/>
</clipPath>
</defs>
</svg>

<svg xmlns="http://www.w3.org/2000/svg" width="358" height="20" fill="none"><g fill="#000" clip-path="url(#a)"><path d="M216 1.667a5.829 5.829 0 0 0-5.833 5.833c0 4.375 5.833 10.833 5.833 10.833s5.833-6.458 5.833-10.833A5.829 5.829 0 0 0 216 1.667ZM211.833 7.5c0-2.3 1.867-4.167 4.167-4.167s4.167 1.867 4.167 4.167c0 2.4-2.4 5.992-4.167 8.233-1.733-2.225-4.167-5.858-4.167-8.233Z"/><path d="M216 9.583a2.083 2.083 0 1 0 0-4.165 2.083 2.083 0 0 0 0 4.165Z"/></g><path fill="#000" d="m239.6 15-3.57-10.47h-2.13L230.33 15h1.725l.915-2.835h3.915L237.83 15h1.77Zm-3.135-4.29h-3.09l1.515-4.62h.075l1.5 4.62Zm4.637 4.29h1.635V9.765c0-.9.84-1.335 1.695-1.335 1.005 0 1.47.615 1.47 1.815V15h1.635v-4.95c0-1.92-.945-3.03-2.535-3.03-1.2 0-1.86.63-2.19 1.47h-.075V3.9h-1.635V15Zm10.336 0V9.765c0-.9.795-1.335 1.605-1.335.96 0 1.425.6 1.425 1.815V15h1.635V9.765c0-.9.765-1.335 1.59-1.335.99 0 1.44.615 1.44 1.815V15h1.635v-4.95c0-1.92-.915-3.03-2.46-3.03-1.26 0-2.07.72-2.355 1.59h-.045c-.375-1.08-1.26-1.59-2.31-1.59-1.185 0-1.77.66-2.085 1.47h-.075V7.2h-1.635V15h1.635Zm14.652.18c1.455 0 2.595-.63 3.18-1.575l-.96-.945c-.45.72-1.095 1.17-2.055 1.17-1.32 0-2.055-.855-2.055-2.055v-.255h5.355v-.615c0-2.16-1.17-3.885-3.465-3.885-2.22 0-3.585 1.59-3.585 4.08s1.365 4.08 3.585 4.08Zm0-6.885c1.08 0 1.74.795 1.74 1.995v.15h-3.63v-.105c0-1.2.765-2.04 1.89-2.04ZM276.27 15h1.635V3.9h-1.635v4.59h-.075c-.33-.93-1.155-1.47-2.19-1.47-1.965 0-3.105 1.515-3.105 4.08 0 2.565 1.14 4.08 3.105 4.08 1.035 0 1.86-.555 2.19-1.47h.075V15Zm-1.77-1.23c-1.125 0-1.875-.795-1.875-1.995v-1.35c0-1.2.75-1.995 1.875-1.995.99 0 1.77.54 1.77 1.335v2.67c0 .795-.78 1.335-1.77 1.335ZM286.872 15v-1.335h-.825V9.75c0-1.74-1.125-2.73-3.135-2.73-1.515 0-2.43.645-2.94 1.515l.975.885c.39-.615.945-1.065 1.86-1.065 1.095 0 1.605.555 1.605 1.5v.66h-1.41c-2.175 0-3.33.795-3.33 2.34 0 1.41.915 2.325 2.52 2.325 1.14 0 1.98-.51 2.28-1.485h.075c.105.765.555 1.305 1.41 1.305h.915Zm-4.215-1.065c-.81 0-1.32-.36-1.32-1.05v-.27c0-.675.555-1.05 1.695-1.05h1.38v1.125c0 .765-.75 1.245-1.755 1.245ZM288.475 15h1.635v-1.29h.075c.33.915 1.155 1.47 2.19 1.47 1.965 0 3.105-1.515 3.105-4.08 0-2.565-1.14-4.08-3.105-4.08-1.035 0-1.86.54-2.19 1.47h-.075V3.9h-1.635V15Zm3.405-1.23c-.99 0-1.77-.54-1.77-1.335v-2.67c0-.795.78-1.335 1.77-1.335 1.125 0 1.875.795 1.875 1.995v1.35c0 1.2-.75 1.995-1.875 1.995ZM303.982 15v-1.335h-.825V9.75c0-1.74-1.125-2.73-3.135-2.73-1.515 0-2.43.645-2.94 1.515l.975.885c.39-.615.945-1.065 1.86-1.065 1.095 0 1.605.555 1.605 1.5v.66h-1.41c-2.175 0-3.33.795-3.33 2.34 0 1.41.915 2.325 2.52 2.325 1.14 0 1.98-.51 2.28-1.485h.075c.105.765.555 1.305 1.41 1.305h.915Zm-4.215-1.065c-.81 0-1.32-.36-1.32-1.05v-.27c0-.675.555-1.05 1.695-1.05h1.38v1.125c0 .765-.75 1.245-1.755 1.245ZM310.489 15h1.635V3.9h-1.635v4.59h-.075c-.33-.93-1.155-1.47-2.19-1.47-1.965 0-3.105 1.515-3.105 4.08 0 2.565 1.14 4.08 3.105 4.08 1.035 0 1.86-.555 2.19-1.47h.075V15Zm-1.77-1.23c-1.125 0-1.875-.795-1.875-1.995v-1.35c0-1.2.75-1.995 1.875-1.995.99 0 1.77.54 1.77 1.335v2.67c0 .795-.78 1.335-1.77 1.335Zm6.747-.855c-.735 0-1.095.42-1.095 1.02v.24c0 .48.255.855.78.96-.21.735-.63 1.29-1.275 1.935h1.215c.9-.735 1.47-1.92 1.47-2.895v-.24c0-.6-.36-1.02-1.095-1.02ZM326.587 15v-1.38h-1.44V5.91h1.44V4.53h-4.56v1.38h1.425v7.71h-1.425V15h4.56Zm3.645 0V9.78c0-.915.84-1.35 1.695-1.35 1.005 0 1.47.615 1.47 1.83V15h1.635v-4.95c0-1.92-.945-3.03-2.535-3.03-1.2 0-1.86.63-2.19 1.47h-.075V7.2h-1.635V15h1.635Zm11.971 0h1.635V3.9h-1.635v4.59h-.075c-.33-.93-1.155-1.47-2.19-1.47-1.965 0-3.105 1.515-3.105 4.08 0 2.565 1.14 4.08 3.105 4.08 1.035 0 1.86-.555 2.19-1.47h.075V15Zm-1.77-1.23c-1.125 0-1.875-.795-1.875-1.995v-1.35c0-1.2.75-1.995 1.875-1.995.99 0 1.77.54 1.77 1.335v2.67c0 .795-.78 1.335-1.77 1.335ZM347 5.805c.675 0 .96-.36.96-.855v-.255c0-.495-.285-.855-.96-.855s-.975.36-.975.855v.255c0 .495.3.855.975.855ZM346.175 15h1.635V7.2h-1.635V15Zm10.6 0v-1.335h-.825V9.75c0-1.74-1.125-2.73-3.135-2.73-1.515 0-2.43.645-2.94 1.515l.975.885c.39-.615.945-1.065 1.86-1.065 1.095 0 1.605.555 1.605 1.5v.66h-1.41c-2.175 0-3.33.795-3.33 2.34 0 1.41.915 2.325 2.52 2.325 1.14 0 1.98-.51 2.28-1.485h.075c.105.765.555 1.305 1.41 1.305h.915Zm-4.215-1.065c-.81 0-1.32-.36-1.32-1.05v-.27c0-.675.555-1.05 1.695-1.05h1.38v1.125c0 .765-.75 1.245-1.755 1.245ZM26.985 15v-4.56h4.305v-1.5h-4.305V6.03h4.845v-1.5h-6.54V15h1.695Zm8.008 0v-4.98c0-.81.72-1.245 2.01-1.245h.645V7.2h-.434c-1.245 0-1.92.705-2.145 1.5h-.076V7.2h-1.635V15h1.636Zm4.933-9.195c.675 0 .96-.36.96-.855v-.255c0-.495-.285-.855-.96-.855s-.975.36-.975.855v.255c0 .495.3.855.975.855ZM39.1 15h1.635V7.2H39.1V15Zm4.974-2.085c-.735 0-1.095.42-1.095 1.02v.24c0 .48.255.855.78.96-.21.735-.63 1.29-1.275 1.935H43.7c.9-.735 1.47-1.92 1.47-2.895v-.24c0-.6-.36-1.02-1.095-1.02ZM58.271 15v-1.41h-2.55V4.53h-2.58l-2.67 2.895 1.035.93 2.43-2.595h.12v7.83h-2.94V15h7.155Zm8.634-1.44h-5.28l2.46-2.115c1.38-1.185 2.505-2.295 2.505-3.99 0-1.815-1.23-3.105-3.36-3.105-2.1 0-3.15 1.23-3.585 2.55l1.485.57c.255-.915.81-1.65 1.965-1.65 1.035 0 1.695.63 1.695 1.635v.195c0 .96-.6 1.8-1.65 2.745l-3.345 2.985V15h7.11v-1.44Zm9.764 1.62c2.73 0 4.515-1.89 4.515-5.415 0-3.525-1.785-5.415-4.515-5.415-2.73 0-4.515 1.89-4.515 5.415 0 3.525 1.785 5.415 4.515 5.415Zm0-1.515c-1.62 0-2.7-1.17-2.7-3.075V8.94c0-1.905 1.08-3.075 2.7-3.075s2.7 1.17 2.7 3.075v1.65c0 1.905-1.08 3.075-2.7 3.075Zm9.524 1.515c1.5 0 2.565-.705 3.075-1.98l-1.245-.66c-.33.78-.885 1.29-1.83 1.29-1.2 0-1.815-.825-1.815-2.025V10.41c0-1.2.615-2.025 1.815-2.025.885 0 1.44.465 1.665 1.185l1.35-.63c-.465-1.155-1.455-1.92-3.015-1.92-2.25 0-3.54 1.59-3.54 4.08s1.29 4.08 3.54 4.08Zm8.216-.18v-1.335h-1.515v-5.13h1.635V7.2h-1.635V5.07h-1.47v1.365c0 .54-.18.765-.72.765h-.66v1.335h1.215v4.77c0 1.065.6 1.695 1.725 1.695h1.425Zm2.899-2.085c-.735 0-1.095.42-1.095 1.02v.24c0 .48.255.855.78.96-.21.735-.63 1.29-1.275 1.935h1.215c.9-.735 1.47-1.92 1.47-2.895v-.24c0-.6-.36-1.02-1.095-1.02Zm13.835.645h-5.28l2.46-2.115c1.38-1.185 2.505-2.295 2.505-3.99 0-1.815-1.23-3.105-3.36-3.105-2.1 0-3.15 1.23-3.585 2.55l1.485.57c.255-.915.81-1.65 1.965-1.65 1.035 0 1.695.63 1.695 1.635v.195c0 .96-.6 1.8-1.65 2.745l-3.345 2.985V15h7.11v-1.44Zm5.379 1.62c2.61 0 3.795-1.995 3.795-5.415s-1.185-5.415-3.795-5.415-3.795 1.995-3.795 5.415 1.185 5.415 3.795 5.415Zm0-1.44c-1.455 0-1.995-1.23-1.995-3.06V8.85c0-1.83.54-3.06 1.995-3.06s1.995 1.23 1.995 3.06v1.83c0 1.83-.54 3.06-1.995 3.06Zm12.97 1.26v-1.41h-2.55V4.53h-2.58l-2.67 2.895 1.035.93 2.43-2.595h.12v7.83h-2.94V15h7.155Zm5.019.18c2.43 0 3.75-1.305 3.75-3.03 0-1.395-.84-2.235-2.1-2.58v-.12c1.065-.375 1.785-1.215 1.785-2.415 0-1.605-1.26-2.685-3.435-2.685s-3.435 1.08-3.435 2.685c0 1.2.72 2.04 1.785 2.415v.12c-1.26.345-2.1 1.185-2.1 2.58 0 1.725 1.32 3.03 3.75 3.03Zm0-1.365c-1.26 0-1.98-.615-1.98-1.65v-.3c0-1.035.72-1.65 1.98-1.65s1.98.615 1.98 1.65v.3c0 1.035-.72 1.65-1.98 1.65Zm0-4.905c-1.155 0-1.785-.525-1.785-1.47v-.255c0-.945.63-1.47 1.785-1.47 1.155 0 1.785.525 1.785 1.47v.255c0 .945-.63 1.47-1.785 1.47Z"/><g clip-path="url(#b)"><path fill="#000" d="M15.833 2.5H15V.833h-1.667V2.5H6.667V.833H5V2.5h-.833a1.66 1.66 0 0 0-1.659 1.667L2.5 15.833c0 .917.742 1.667 1.667 1.667h11.666c.917 0 1.667-.75 1.667-1.667V4.167c0-.917-.75-1.667-1.667-1.667Zm0 13.333H4.167V6.667h11.666v9.166Zm-10-7.5H10V12.5H5.833V8.333Z"/></g><defs><clipPath id="a"><path fill="#fff" d="M206 0h20v20h-20z"/></clipPath><clipPath id="b"><path fill="#fff" d="M0 0h20v20H0z"/></clipPath></defs></svg>
